X: 1235
T: Backblock Shearer
B: australian traditional tunes wiki
M:6/8
L:1/8
Q: 3/8=100
K:G
V:1 
"G"e2d BdB|G2Bd2B|dedc2B|"D7"A3-A2G|F2GA2B|c2df2e|d^cde2d|"G"B3-B2d|
"G"e2d BdB|G2Bd2B|dedc2B|"D7"A3-A2G|F2GA2B|c2d f2e|d^cd=c2A|"G"G3-G2z||
% abcbook-tune_id 6342d53a6033f1c843a261b9


% abcbook-boost 0
% abcbook-tablature 
% abcbook-transpose 
% abcbook-lastupdated 1665324355257
% abcbook-soundfonts 
% abcbook-repeats 1
% NFF Book 2008

